_includes/icons/color-ios-logo.svg

<svg fill="#666" height="50" viewBox="0 0 48 48" width="50" xmlns="http://www.w3.org/2000/svg"><path d="m16 42h16c5.523438 0 10-4.476562 10-10v-16c0-5.523437-4.476562-10-10-10h-16c-5.523437 0-10 4.476563-10 10v16c0 5.523438 4.476563 10 10 10z" fill="#eceff1"/><path d="m13.546875 18.734375c0 .421875-.34375.761719-.765625.761719-.417969 0-.761719-.339844-.761719-.761719 0-.417969.34375-.761719.761719-.761719.421875 0 .765625.34375.765625.761719z" fill="#ffc107"/><path d="m15.980469 21.808594 1.445312-.609375c.679688-1.21875 1.835938-1.925781 3.332032-1.925781.339843 0 .660156.042968.960937.113281l1.375-.578125c-.679687-.335938-1.453125-.527344-2.335937-.527344-2.390625 0-4.09375 1.3125-4.777344 3.527344z" fill="#ff5722"/><path d="m13.296875 22.945313v-1.570313h-1.023437v2.003906z" fill="#ff5722"/><g fill="#f44336"><path d="m13.296875 25.734375v-2.789062l-1.023437.433593v2.785157z"/><path d="m16.742188 24.148438c0-1.167969.246093-2.164063.683593-2.949219l-1.445312.609375c-.210938.699219-.332031 1.476562-.332031 2.339844 0 .199218.027343.382812.039062.574218l1.0625-.449218c0-.042969-.007812-.082032-.007812-.125z"/><path d="m30.421875 18.5c-.28125.085938-.539062.195313-.773437.328125z"/><path d="m23.09375 18.808594-1.375.578125c1.027344.234375 1.828125.863281 2.351563 1.796875l1.023437-.433594c-.46875-.871094-1.152344-1.523437-2-1.941406z"/></g><path d="m13.296875 28.519531v-2.785156l-1.023437.429688v2.789062z" fill="#e91e63"/><path d="m30.421875 18.5-.773437.328125c-.984375.546875-1.578125 1.460938-1.578125 2.578125 0 .304688.046875.570313.117187.824219l1.03125-.433594c-.035156-.132812-.054687-.269531-.054687-.421875 0-1.226562 1.117187-2.117187 2.734375-2.117187.792968 0 1.464843.214843 1.957031.582031l1.046875-.445313c-.691406-.683593-1.734375-1.113281-2.972656-1.113281-.546875 0-1.054688.078125-1.507813.21875z" fill="#e91e63"/><path d="m16.75 24.273438-1.0625.449218c.058594.960938.261719 1.8125.597656 2.535157l1.003907-.421875c-.335938-.714844-.523438-1.574219-.539063-2.5625z" fill="#e91e63"/><path d="m25.09375 20.75-1.023437.433594c.378906.679687.601562 1.53125.65625 2.507812l1.0625-.445312c-.09375-.949219-.320313-1.792969-.695313-2.496094z" fill="#e91e63"/><g fill="#9c27b0"><path d="m25.609375 26.109375c.144531-.601562.242188-1.25.242188-1.960937 0-.316407-.035157-.609375-.0625-.90625l-1.0625.449218c.007812.152344.03125.296875.03125.457032 0 .96875-.179688 1.808593-.480469 2.523437z"/><path d="m17.289063 26.835938-1.003907.421875c.410157.878906 1.007813 1.566406 1.777344 2.039062l1.257813-.53125c-.898438-.339844-1.59375-1-2.03125-1.929687z"/><path d="m13.296875 28.519531-1.023437.433594v.835938h1.023437z"/><path d="m29.21875 21.796875-1.03125.433594c.246094.867187.914063 1.472656 2.128906 1.890625l1.601563-.675781-.339844-.085938c-1.457031-.363281-2.171875-.832031-2.359375-1.5625z"/><path d="m34.71875 21.273438h1.078125c-.050781-.730469-.378906-1.375-.894531-1.878907l-1.046875.441407c.472656.351562.78125.847656.863281 1.4375z"/></g><path d="m25.609375 26.109375-1.332031.5625c-.628906 1.476563-1.851563 2.359375-3.519531 2.359375-.527344 0-1-.101562-1.4375-.265625l-1.257813.53125c.75.457031 1.648438.726563 2.695313.726563 2.542968 0 4.261718-1.484375 4.851562-3.914063z" fill="#3f51b5"/><path d="m28.828125 26.859375h-1.078125c.027344.367188.128906.703125.265625 1.019531l.988281-.417968c-.085937-.1875-.152343-.386719-.175781-.601563z" fill="#3f51b5"/><path d="m32.695313 23.640625-.78125-.195312-1.597657.675781c.234375.082031.488282.15625.761719.222656l1.289063.328125c.714843.175781 1.257812.398438 1.660156.671875l1.203125-.511719c-.527344-.515625-1.351563-.898437-2.535156-1.191406z" fill="#3f51b5"/><path d="m29.003906 27.464844-.988281.417969c.375.867187 1.136719 1.527343 2.164063 1.871093l1.691406-.714843c-1.378906-.03125-2.457031-.644532-2.867188-1.574219z" fill="#03a9f4"/><path d="m35.914063 27.332031c.035156-.191406.0625-.390625.0625-.597656 0-.785156-.234375-1.402344-.746094-1.902344l-1.203125.511719c.578125.386719.855469.882813.855469 1.507813 0 .394531-.128907.75-.347657 1.0625z" fill="#03a9f4"/><path d="m35.914063 27.332031-1.378907.582032c-.472656.683593-1.394531 1.132812-2.550781 1.132812-.039062 0-.074219-.003906-.113281-.007812l-1.691406.714843c.515625.171875 1.085937.269532 1.710937.269532 2.207031 0 3.722656-1.058594 4.023438-2.691407z" fill="#009688"/></svg>

<svg xmlns="http://www.w3.org/2000/svg" viewBox="0 0 48 48" width="50" height="50" fill="#666"><path d="M 16 42 L 32 42 C 37.523438 42 42 37.523438 42 32 L 42 16 C 42 10.476563 37.523438 6 32 6 L 16 6 C 10.476563 6 6 10.476563 6 16 L 6 32 C 6 37.523438 10.476563 42 16 42 Z" fill="#eceff1"/><path d="M 13.546875 18.734375 C 13.546875 19.15625 13.203125 19.496094 12.78125 19.496094 C 12.363281 19.496094 12.019531 19.15625 12.019531 18.734375 C 12.019531 18.316406 12.363281 17.972656 12.78125 17.972656 C 13.203125 17.972656 13.546875 18.316406 13.546875 18.734375 Z" fill="#ffc107"/><path d="M 15.980469 21.808594 L 17.425781 21.199219 C 18.105469 19.980469 19.261719 19.273438 20.757813 19.273438 C 21.097656 19.273438 21.417969 19.316406 21.71875 19.386719 L 23.09375 18.808594 C 22.414063 18.472656 21.640625 18.28125 20.757813 18.28125 C 18.367188 18.28125 16.664063 19.59375 15.980469 21.808594 Z" fill="#ff5722"/><path d="M 13.296875 22.945313 L 13.296875 21.375 L 12.273438 21.375 L 12.273438 23.378906 Z" fill="#ff5722"/><path d="M 13.296875 25.734375 L 13.296875 22.945313 L 12.273438 23.378906 L 12.273438 26.164063 Z" fill="#f44336"/><path d="M 16.742188 24.148438 C 16.742188 22.980469 16.988281 21.984375 17.425781 21.199219 L 15.980469 21.808594 C 15.769531 22.507813 15.648438 23.285156 15.648438 24.148438 C 15.648438 24.347656 15.675781 24.53125 15.6875 24.722656 L 16.75 24.273438 C 16.75 24.230469 16.742188 24.191406 16.742188 24.148438 Z" fill="#f44336"/><path d="M 30.421875 18.5 C 30.140625 18.585938 29.882813 18.695313 29.648438 18.828125 Z" fill="#f44336"/><path d="M 23.09375 18.808594 L 21.71875 19.386719 C 22.746094 19.621094 23.546875 20.25 24.070313 21.183594 L 25.09375 20.75 C 24.625 19.878906 23.941406 19.226563 23.09375 18.808594 Z" fill="#f44336"/><path d="M 13.296875 28.519531 L 13.296875 25.734375 L 12.273438 26.164063 L 12.273438 28.953125 Z" fill="#e91e63"/><path d="M 30.421875 18.5 L 29.648438 18.828125 C 28.664063 19.375 28.070313 20.289063 28.070313 21.40625 C 28.070313 21.710938 28.117188 21.976563 28.1875 22.230469 L 29.21875 21.796875 C 29.183594 21.664063 29.164063 21.527344 29.164063 21.375 C 29.164063 20.148438 30.28125 19.257813 31.898438 19.257813 C 32.691406 19.257813 33.363281 19.472656 33.855469 19.839844 L 34.902344 19.394531 C 34.210938 18.710938 33.167969 18.28125 31.929688 18.28125 C 31.382813 18.28125 30.875 18.359375 30.421875 18.5 Z" fill="#e91e63"/><path d="M 16.75 24.273438 L 15.6875 24.722656 C 15.746094 25.683594 15.949219 26.535156 16.285156 27.257813 L 17.289063 26.835938 C 16.953125 26.121094 16.765625 25.261719 16.75 24.273438 Z" fill="#e91e63"/><path d="M 25.09375 20.75 L 24.070313 21.183594 C 24.449219 21.863281 24.671875 22.714844 24.726563 23.691406 L 25.789063 23.246094 C 25.695313 22.296875 25.46875 21.453125 25.09375 20.75 Z" fill="#e91e63"/><path d="M 25.609375 26.109375 C 25.753906 25.507813 25.851563 24.859375 25.851563 24.148438 C 25.851563 23.832031 25.816406 23.539063 25.789063 23.242188 L 24.726563 23.691406 C 24.734375 23.84375 24.757813 23.988281 24.757813 24.148438 C 24.757813 25.117188 24.578125 25.957031 24.277344 26.671875 Z" fill="#9c27b0"/><path d="M 17.289063 26.835938 L 16.285156 27.257813 C 16.695313 28.136719 17.292969 28.824219 18.0625 29.296875 L 19.320313 28.765625 C 18.421875 28.425781 17.726563 27.765625 17.289063 26.835938 Z" fill="#9c27b0"/><path d="M 13.296875 28.519531 L 12.273438 28.953125 L 12.273438 29.789063 L 13.296875 29.789063 Z" fill="#9c27b0"/><path d="M 29.21875 21.796875 L 28.1875 22.230469 C 28.433594 23.097656 29.101563 23.703125 30.316406 24.121094 L 31.917969 23.445313 L 31.578125 23.359375 C 30.121094 22.996094 29.40625 22.527344 29.21875 21.796875 Z" fill="#9c27b0"/><path d="M 34.71875 21.273438 L 35.796875 21.273438 C 35.746094 20.542969 35.417969 19.898438 34.902344 19.394531 L 33.855469 19.835938 C 34.328125 20.1875 34.636719 20.683594 34.71875 21.273438 Z" fill="#9c27b0"/><path d="M 25.609375 26.109375 L 24.277344 26.671875 C 23.648438 28.148438 22.425781 29.03125 20.757813 29.03125 C 20.230469 29.03125 19.757813 28.929688 19.320313 28.765625 L 18.0625 29.296875 C 18.8125 29.753906 19.710938 30.023438 20.757813 30.023438 C 23.300781 30.023438 25.019531 28.539063 25.609375 26.109375 Z" fill="#3f51b5"/><path d="M 28.828125 26.859375 L 27.75 26.859375 C 27.777344 27.226563 27.878906 27.5625 28.015625 27.878906 L 29.003906 27.460938 C 28.917969 27.273438 28.851563 27.074219 28.828125 26.859375 Z" fill="#3f51b5"/><path d="M 32.695313 23.640625 L 31.914063 23.445313 L 30.316406 24.121094 C 30.550781 24.203125 30.804688 24.277344 31.078125 24.34375 L 32.367188 24.671875 C 33.082031 24.847656 33.625 25.070313 34.027344 25.34375 L 35.230469 24.832031 C 34.703125 24.316406 33.878906 23.933594 32.695313 23.640625 Z" fill="#3f51b5"/><path d="M 29.003906 27.464844 L 28.015625 27.882813 C 28.390625 28.75 29.152344 29.410156 30.179688 29.753906 L 31.871094 29.039063 C 30.492188 29.007813 29.414063 28.394531 29.003906 27.464844 Z" fill="#03a9f4"/><path d="M 35.914063 27.332031 C 35.949219 27.140625 35.976563 26.941406 35.976563 26.734375 C 35.976563 25.949219 35.742188 25.332031 35.230469 24.832031 L 34.027344 25.34375 C 34.605469 25.730469 34.882813 26.226563 34.882813 26.851563 C 34.882813 27.246094 34.753906 27.601563 34.535156 27.914063 Z" fill="#03a9f4"/><path d="M 35.914063 27.332031 L 34.535156 27.914063 C 34.0625 28.597656 33.140625 29.046875 31.984375 29.046875 C 31.945313 29.046875 31.910156 29.042969 31.871094 29.039063 L 30.179688 29.753906 C 30.695313 29.925781 31.265625 30.023438 31.890625 30.023438 C 34.097656 30.023438 35.613281 28.964844 35.914063 27.332031 Z" fill="#009688"/></svg>
